assets/illustrations/multisize/16/pub.svg

<?xml version="1.0" encoding="utf-8"?>
<!-- Generator: Adobe Illustrator 21.1.0, SVG Export Plug-In . SVG Version: 6.00 Build 0)  -->
<svg version="1.1" xmlns="http://www.w3.org/2000/svg" xmlns:xlink="http://www.w3.org/1999/xlink" x="0px" y="0px"
	 viewBox="0 0 16 16" enable-background="new 0 0 16 16" xml:space="preserve">
<g id="TEMPLATE" display="none">
	<g display="inline">
		<path fill="#D0D0D0" d="M16,0v16H0V0H16 M17-1h-1H0h-1v1v16v1h1h16h1v-1V0V-1L17-1z"/>
	</g>
</g>
<g id="ICONS">
	<polygon fill="#FFFFFF" points="14,15 4,15 4,1 12,1 14,2.9998 	"/>
	<path fill="#949494" d="M12,0H3v16h12V3L12,0z M12,1.5L13.5,3H12V1.5z M14,15H4V1h7v3h3V15z"/>
	<g>
		<path fill="#C8C8C8" d="M12,10v3H8v-3H12 M13,9H7v5h6V9L13,9z"/>
	</g>
	<g>
		<path fill="#C8C8C8" d="M10,6v3H7V6H10 M11,5H6v5h5V5L11,5z"/>
	</g>
	<polygon fill="#077568" points="1,5 8,4 8,14 1,13 	"/>
	<g>
		<path fill="#FFFFFF" d="M5,7H4H3v1v3h1v-1h1V9h1V8H5V7z M5,9H4V8h1V9z"/>
		<rect x="5" y="9" opacity="0.6" fill="#FFFFFF" width="1" height="1"/>
		<rect x="5" y="7" opacity="0.6" fill="#FFFFFF" width="1" height="1"/>
	</g>
</g>
</svg>

<svg id="093a1861-ce16-4823-a212-36dacad8cb22" data-name="ICONS" xmlns="http://www.w3.org/2000/svg" viewBox="0 0 16 16"><title>FileTypeIcons_Master_All_NEW</title><polygon points="14 15 4 15 4 1 12 1 14 3 14 15" fill="#fff"/><path d="M12,0H3V16H15V3Zm0,1.5L13.5,3H12ZM14,15H4V1h7V4h3Z" fill="#949494"/><path d="M12,10v3H8V10h4m1-1H7v5h6V9Z" fill="#c8c8c8"/><path d="M10,6V9H7V6h3m1-1H6v5h5V5Z" fill="#c8c8c8"/><polygon points="1 5 8 4 8 14 1 13 1 5" fill="#077568"/><path d="M5,7H3v4H4V10H5V9H6V8H5ZM5,9H4V8H5Z" fill="#fff"/><rect x="5" y="9" width="1" height="1" fill="#fff" opacity="0.6"/><rect x="5" y="7" width="1" height="1" fill="#fff" opacity="0.6"/></svg>
